X:25
T:Abschieds-Juiz 2003  Bb  ABCD
T:Fredy Wallimann (30.8.1952)
T:Dirigenten-Notiz  Edi Gasser
C:Unterwalden (CH)
%%partsbox
%P:ABCD
M:3/4
R:Naturjodel
L:1/4
K:Bb
M:3/4
L:1/4
"Anruf" F|f>ed | cFd | (B3 | B2)z ||
M:3/4
[P:A] BDG | F>BD | BDG | F>AE | AEG | F>Ec | FEc | B>cd | 
BDG | F>BD | BDG | F>AE | ACG | F>Ec | FeA | B2 ||
L:1/8
M:2/4
[P:B] F/d/ | BD F>D | CF Ee/c/ | AC F>E | Dd BF/d/ | BD F>D | CF Ee/c/ | AF e/d/c | B3c ||  
L:1/4
M:3/4
[P:C] FED | C>DE | GFE | D>BF | FED | C>DE | GFC/E/ | D3 | 
FED | C>DE | GFE | D>BF | FED | C>DE | GFc | B2z || 
L:1/8
M:2/4
[P:D] F/d/ | BD F>D | CF Ee/c/ | AC F>E | Dd BF/d/ | BD F>D | CF Ee/c/ | AF e/d/c | 
B3F/d/ || BD/E/ F>D | CF Ee/c/ | AC F>E | Dd BF/d/ | BD/E/ F>D | CF Ee/c/ | AF e/d/c | B4 || 
L:1/4
M:3/4
"_Abschiedsgruss" F|f>ed | cFd | (B3 | B2) |]
W:
%W:Reihenfolge: A-B-C-D
W:
W:notiert Edi Gasser, nach Angaben von Fredy (Wallimann)
W:UJV-Naturjodelsammlung: Code-Nr: 17-13
W:http://www.naturjodler.ch/code 17-a.htm  (with AUDIO)
%May 14 2018

